X: 41616
T: Up In The Garret
R: slip jig
M: 9/8
K: Adorian
dcB ABE A3|dcB ~A3 efg|dcB ABE A2 e|dBG GFG Bcd|
dcB ABE A3|dcB ~A3 efg|dcB ABE A2 e|dBG GFG dBG|
~B3 e2 d e3|~B3 e2 d efg|~B3 e2 d efe|dBG GFG Bcd|
~B3 e2 d e3|~B3 e2 d efg|~B3 e2 d efe|dBG GFG dBG|

